packages/icons/raw/imported/TypeText.svg

<svg width="32" height="32" viewBox="0 0 32 32" fill="none" xmlns="http://www.w3.org/2000/svg">
<g filter="url(#filter0_d_2567:573)">
<g filter="url(#filter1_d_2567:573)">
<path fill-rule="evenodd" clip-rule="evenodd" d="M14.9824 16.9307V15.9467H15.9844V10.8217C15.8653 10.4663 15.3376 9.73388 15.0791 9.53244C14.8225 9.33385 14.5185 9.18356 14.1797 9.07623C14.0936 9.04868 13.9422 9.02609 13.7527 9.01319C13.5475 8.99922 13.3248 8.99743 13.1225 9.0029C13.0577 9.00493 13.0577 9.00493 13.0462 9.00547L13 8.00654C13.0201 8.00562 13.0201 8.00562 13.0955 8.00326C13.3268 7.99701 13.5789 7.99904 13.8206 8.01549C14.0838 8.03341 14.3052 8.06645 14.4831 8.12336C14.9261 8.26373 15.3344 8.4656 15.6924 8.74263C15.9222 8.92169 16.2225 9.27543 16.4742 9.65265C16.7333 9.27683 17.0452 8.92819 17.3061 8.74839C17.733 8.45202 18.1214 8.24159 18.4926 8.12399C18.6718 8.06651 18.8934 8.03344 19.157 8.01553C19.3983 7.99914 19.6499 7.99712 19.8809 8.00336C19.9562 8.00572 19.9562 8.00572 19.9764 8.00664L19.9302 9.00557C19.9187 9.00503 19.9187 9.00503 19.8539 9.003C19.6519 8.99754 19.4295 8.99932 19.2247 9.01323C19.0351 9.02612 18.8838 9.04871 18.7963 9.07675C18.5344 9.15974 18.2281 9.32568 17.875 9.5708C17.597 9.76239 17.1168 10.4143 16.9704 10.8089V15.9467H17.9684V16.9307H16.9704V21.1057C17.1167 21.5 17.5968 22.1508 17.8772 22.3433C18.2279 22.5878 18.5333 22.753 18.799 22.8357C18.8846 22.8634 19.0357 22.8861 19.2251 22.8991C19.4301 22.9132 19.6526 22.915 19.8547 22.9096C19.9188 22.9076 19.9188 22.9076 19.9302 22.907L19.9764 23.906C19.9564 23.9069 19.9564 23.9069 19.8816 23.9092C19.6504 23.9155 19.3984 23.9134 19.1566 23.8968C18.8928 23.8787 18.671 23.8453 18.4968 23.7889C18.1225 23.6725 17.733 23.4618 17.3083 23.1657C17.0461 22.9857 16.7331 22.6367 16.4736 22.2605C16.2222 22.6369 15.9223 22.99 15.6918 23.1705C15.3344 23.4481 14.9249 23.6505 14.4855 23.7885C14.306 23.8463 14.0844 23.8797 13.821 23.8978C13.5788 23.9145 13.3263 23.9166 13.0947 23.9103C13.02 23.908 13.02 23.908 13 23.9071L13.0462 22.9081C13.0576 22.9087 13.0576 22.9087 13.1217 22.9107C13.3241 22.9161 13.547 22.9143 13.7523 22.9002C13.9417 22.8871 14.0928 22.8644 14.1823 22.8356C14.5182 22.7301 14.8219 22.58 15.0769 22.3819C15.3382 22.1773 15.8654 21.4459 15.9701 21.0867L15.9844 16.9307H14.9824Z" fill="black"/>
</g>
</g>
<defs>
<filter id="filter0_d_2567:573" x="-2" y="0" width="36" height="36" filterUnits="userSpaceOnUse" color-interpolation-filters="sRGB">
<feFlood flood-opacity="0" result="BackgroundImageFix"/>
<feColorMatrix in="SourceAlpha" type="matrix" values="0 0 0 0 0 0 0 0 0 0 0 0 0 0 0 0 0 0 127 0" result="hardAlpha"/>
<feOffset dy="2"/>
<feGaussianBlur stdDeviation="1"/>
<feColorMatrix type="matrix" values="0 0 0 0 0 0 0 0 0 0 0 0 0 0 0 0 0 0 0.25 0"/>
<feBlend mode="normal" in2="BackgroundImageFix" result="effect1_dropShadow_2567:573"/>
<feBlend mode="normal" in="SourceGraphic" in2="effect1_dropShadow_2567:573" result="shape"/>
</filter>
<filter id="filter1_d_2567:573" x="12" y="7" width="8.97632" height="17.9136" filterUnits="userSpaceOnUse" color-interpolation-filters="sRGB">
<feFlood flood-opacity="0" result="BackgroundImageFix"/>
<feColorMatrix in="SourceAlpha" type="matrix" values="0 0 0 0 0 0 0 0 0 0 0 0 0 0 0 0 0 0 127 0" result="hardAlpha"/>
<feOffset/>
<feGaussianBlur stdDeviation="0.5"/>
<feColorMatrix type="matrix" values="0 0 0 0 1 0 0 0 0 1 0 0 0 0 1 0 0 0 1 0"/>
<feBlend mode="normal" in2="BackgroundImageFix" result="effect1_dropShadow_2567:573"/>
<feBlend mode="normal" in="SourceGraphic" in2="effect1_dropShadow_2567:573" result="shape"/>
</filter>
</defs>
</svg>

<svg width="32" height="32" fill="none" xmlns="http://www.w3.org/2000/svg"><g filter="url(#a)"><g filter="url(#b)"><path fill-rule="evenodd" clip-rule="evenodd" d="M14.982 16.93v-.983h1.002v-5.125c-.119-.356-.646-1.088-.905-1.29a2.88 2.88 0 0 0-.9-.456 2.04 2.04 0 0 0-.426-.063 6.833 6.833 0 0 0-.63-.01l-.077.002L13 8.007l.095-.004c.232-.006.484-.004.726.012.263.018.484.051.662.108.443.14.851.343 1.21.62.23.179.53.532.781.91.26-.376.571-.725.832-.905.427-.296.815-.506 1.187-.624.179-.057.4-.09.664-.108.241-.017.493-.019.724-.013l.095.004-.046.999-.076-.003a6.835 6.835 0 0 0-.63.01c-.189.013-.34.036-.428.064-.262.083-.568.249-.921.494-.278.191-.758.843-.905 1.238v5.138h.998v.984h-.998v4.175c.147.394.627 1.045.907 1.237.35.245.656.41.922.493.086.027.237.05.426.063a6.8 6.8 0 0 0 .63.01l.075-.002.046.999-.094.003a7.719 7.719 0 0 1-.725-.012 2.837 2.837 0 0 1-.66-.108c-.375-.117-.764-.327-1.189-.623-.262-.18-.575-.53-.834-.905-.252.376-.552.729-.782.91-.358.277-.767.48-1.207.617-.179.058-.4.092-.664.11a7.713 7.713 0 0 1-.726.012L13 23.907l.046-.999.076.003c.202.005.425.003.63-.01.19-.014.34-.037.43-.065.336-.106.64-.256.895-.454.261-.205.788-.936.893-1.295l.014-4.156h-1.002Z" fill="#000"/></g></g><defs><filter id="a" x="-2" y="0" width="36" height="36" filterUnits="userSpaceOnUse" color-interpolation-filters="sRGB"><feFlood flood-opacity="0" result="BackgroundImageFix"/><feColorMatrix in="SourceAlpha" values="0 0 0 0 0 0 0 0 0 0 0 0 0 0 0 0 0 0 127 0" result="hardAlpha"/><feOffset dy="2"/><feGaussianBlur stdDeviation="1"/><feColorMatrix values="0 0 0 0 0 0 0 0 0 0 0 0 0 0 0 0 0 0 0.25 0"/><feBlend in2="BackgroundImageFix" result="effect1_dropShadow_2567:573"/><feBlend in="SourceGraphic" in2="effect1_dropShadow_2567:573" result="shape"/></filter><filter id="b" x="12" y="7" width="8.976" height="17.914" filterUnits="userSpaceOnUse" color-interpolation-filters="sRGB"><feFlood flood-opacity="0" result="BackgroundImageFix"/><feColorMatrix in="SourceAlpha" values="0 0 0 0 0 0 0 0 0 0 0 0 0 0 0 0 0 0 127 0" result="hardAlpha"/><feOffset/><feGaussianBlur stdDeviation=".5"/><feColorMatrix values="0 0 0 0 1 0 0 0 0 1 0 0 0 0 1 0 0 0 1 0"/><feBlend in2="BackgroundImageFix" result="effect1_dropShadow_2567:573"/><feBlend in="SourceGraphic" in2="effect1_dropShadow_2567:573" result="shape"/></filter></defs></svg>
